images/star-outline.svg

<svg width="36" height="36" viewBox="0 0 36 36" fill="none" xmlns="http://www.w3.org/2000/svg">
<path d="M10.2109 21.3652C12.3893 21.9098 14.0902 23.6107 14.6348 25.7891L16.6798 33.9692C16.8313 34.575 17.3756 35 18 35C18.6244 35 19.1687 34.575 19.3202 33.9692L21.3652 25.7891C21.9098 23.6107 23.6107 21.9098 25.7891 21.3652L33.9692 19.3202C34.575 19.1687 35 18.6244 35 18C35 17.3756 34.575 16.8313 33.9692 16.6798L25.7891 14.6348C23.6107 14.0902 21.9098 12.3893 21.3652 10.2109L19.3202 2.03078C19.1687 1.42498 18.6244 1 18 1C17.3756 1 16.8313 1.42498 16.6798 2.03078L14.6348 10.2109C14.0902 12.3893 12.3893 14.0902 10.2109 14.6348L2.03078 16.6798C1.42498 16.8313 1 17.3756 1 18C1 18.6244 1.42498 19.1687 2.03078 19.3202L10.2109 21.3652Z" stroke="white" stroke-width="2"/>
</svg>

<svg xmlns="http://www.w3.org/2000/svg" width="36" height="36" fill="none"><path stroke="#fff" stroke-width="2" d="M10.21 21.365a6.08 6.08 0 0 1 4.425 4.424l2.045 8.18a1.36 1.36 0 0 0 2.64 0l2.045-8.18a6.08 6.08 0 0 1 4.424-4.424l8.18-2.045a1.36 1.36 0 0 0 0-2.64l-8.18-2.045a6.08 6.08 0 0 1-4.424-4.424L19.32 2.03a1.36 1.36 0 0 0-2.64 0l-2.045 8.18a6.08 6.08 0 0 1-4.424 4.424L2.03 16.68a1.36 1.36 0 0 0 0 2.64l8.18 2.045Z"/></svg>
